X: 36209
T: Scotty's Highland
R: jig
M: 6/8
K: Gmajor
BA|GDG BGB|dBd g3|f3 e2 c|A3- A2 G|
FDF AF/G/A|cAc fgf|e3 edB|G3- GBA|
GDG BGB|dBd gag|f3 e2 c|e3- e2 f|
gag fed|edB GB/c/d|e^de f2 =d|g3- g||
c^c|d^cd edB|d^cd edB|d^cd f2 e|c3- cAB|
cBc fed|cBc fed|cBc e2 d|B3- Bc^c|
d^cd edB|d^cd e2 B|GB/c/d gf=f|e3- e2 f|
gag fed|edB GBd|e^de f2 =d|g3- g||
|:B/^c/d|bfa g3|gfg d3|gfg bgd|c3- c3|
DFA DFA|DF/G/A f3|e3 edB|G3- G:|

